papirus/48x48/devices/input-mouse.svg

<?xml version="1.0" encoding="UTF-8" standalone="no"?>
<svg
   xmlns:dc="http://purl.org/dc/elements/1.1/"
   xmlns:cc="http://creativecommons.org/ns#"
   xmlns:rdf="http://www.w3.org/1999/02/22-rdf-syntax-ns#"
   xmlns:svg="http://www.w3.org/2000/svg"
   xmlns="http://www.w3.org/2000/svg"
   xmlns:sodipodi="http://sodipodi.sourceforge.net/DTD/sodipodi-0.dtd"
   xmlns:inkscape="http://www.inkscape.org/namespaces/inkscape"
   id="svg2817"
   height="48"
   width="48"
   version="1.0"
   inkscape:version="0.91 r13725"
   sodipodi:docname="input-mouse.svg">
  <sodipodi:namedview
     pagecolor="#ffffff"
     bordercolor="#666666"
     borderopacity="1"
     objecttolerance="10"
     gridtolerance="10"
     guidetolerance="10"
     inkscape:pageopacity="0"
     inkscape:pageshadow="2"
     inkscape:window-width="1535"
     inkscape:window-height="876"
     id="namedview19"
     showgrid="false"
     inkscape:zoom="9.2"
     inkscape:cx="15.596075"
     inkscape:cy="24"
     inkscape:window-x="65"
     inkscape:window-y="24"
     inkscape:window-maximized="1"
     inkscape:current-layer="svg2817" />
  <metadata
     id="metadata57">
    <rdf:RDF>
      <cc:Work
         rdf:about="">
        <dc:format>image/svg+xml</dc:format>
        <dc:type
           rdf:resource="http://purl.org/dc/dcmitype/StillImage" />
        <dc:title />
      </cc:Work>
    </rdf:RDF>
  </metadata>
  <defs
     id="defs2819">
    <filter
       id="filter4298"
       style="color-interpolation-filters:sRGB"
       height="1.1971"
       width="1.3067"
       y="-.098571"
       x="-.15333">
      <feGaussianBlur
         id="feGaussianBlur4300"
         stdDeviation="1.15" />
    </filter>
  </defs>
  <g
     id="layer7"
     transform="translate(-52.273 -2.186)"
     display="none">
    <rect
       id="rect4169"
       rx="9"
       ry="9"
       height="44"
       width="44"
       y="2"
       x="2"
       display="inline"
       fill="#abe1ad" />
  </g>
  <rect
     id="rect4203"
     transform="matrix(0,-1,-1,0,0,0)"
     rx="20"
     ry="20"
     height="40"
     width="40"
     y="-44"
     x="-44"
     fill="#5c5c5c"
     style="fill:#5d5d5d;fill-opacity:1" />
  <path
     id="rect3436-2"
     opacity=".2"
     fill="#fff"
     d="m24 4c-11.08 0-20 8.92-20 20 0 0.168-0.004 0.333 0 0.5 0.2644-10.846 9.088-19.5 20-19.5s19.736 8.654 20 19.5c0.004-0.167 0-0.332 0-0.5 0-11.08-8.92-20-20-20z"
     style="opacity:0.1" />
  <path
     id="path4149"
     d="m 24,11 c -0.01239,0 -0.02472,0.0019 -0.03711,0.002 -0.0013,8e-6 -0.0026,-8e-6 -0.0039,0 C 19.472717,11.030209 15,15.678617 15,19.167969 l 0,0.738281 0,2.761719 0,8.035156 C 15,35.444125 18.375,39 24,39 c 5.625,10e-4 9,-3.553922 9,-8.294922 l 0,-11.21875 C 33,15.86034 28.506279,11.033125 24,11.003906 L 24,11 Z"
     style="opacity:0.2;fill:#000000;fill-opacity:1"
     inkscape:connector-curvature="0" />
  <path
     style="fill:#cccccc;fill-opacity:1"
     d="M 24 10 C 23.987609 10 23.975281 10.001882 23.962891 10.001953 C 23.961591 10.001961 23.960284 10.001945 23.958984 10.001953 C 19.472717 10.030209 15 14.678617 15 18.167969 L 15 18.90625 L 15 21.667969 L 15 29.703125 C 15 34.444125 18.375 38 24 38 C 29.625 38.001 33 34.446078 33 29.705078 L 33 18.486328 C 33 14.86034 28.506279 10.033125 24 10.003906 L 24 10 z "
     id="path61" />
  <path
     id="path69"
     fill="#5d5d5d"
     d="m24 16c0.551 0 1 0.576 1 1.2857v3.4286c0 0.709-0.449 1.285-1 1.285s-1-0.576-1-1.286v-3.4286c0-0.709 0.449-1.285 1-1.285" />
  <path
     id="rect4213"
     opacity=".2"
     d="m4.0117 24.5c-0.0041 0.167-0.0117 0.332-0.0117 0.5 0 11.08 8.92 20 20 20s20-8.92 20-20c0-0.16787-0.0076-0.33314-0.01172-0.5-0.264 10.846-9.076 19.5-19.988 19.5s-19.724-8.654-19.988-19.5z" />
</svg>

<?xml version="1.0" encoding="UTF-8" standalone="no"?>
<svg id="svg2817" xmlns:rdf="http://www.w3.org/1999/02/22-rdf-syntax-ns#" xmlns="http://www.w3.org/2000/svg" height="48" width="48" version="1.0" xmlns:cc="http://creativecommons.org/ns#" xmlns:dc="http://purl.org/dc/elements/1.1/">
 <metadata id="metadata57">
  <rdf:RDF>
   <cc:Work rdf:about="">
    <dc:format>image/svg+xml</dc:format>
    <dc:type rdf:resource="http://purl.org/dc/dcmitype/StillImage"/>
    <dc:title/>
   </cc:Work>
  </rdf:RDF>
 </metadata>
 <g id="layer7" display="none" transform="translate(-52.273 -2.186)">
  <rect id="rect4169" display="inline" rx="9" ry="9" height="44" width="44" y="2" x="2" fill="#abe1ad"/>
 </g>
 <rect id="rect4203" transform="matrix(0,-1,-1,0,0,0)" rx="20" ry="20" height="40" width="40" y="-44" x="-44" fill="#5d5d5d"/>
 <path id="rect3436-2" opacity=".1" d="m24 4c-11.08 0-20 8.92-20 20 0 0.168-0.004 0.333 0 0.5 0.2644-10.846 9.088-19.5 20-19.5s19.736 8.654 20 19.5c0.004-0.167 0-0.332 0-0.5 0-11.08-8.92-20-20-20z" fill="#fff"/>
 <path id="path4149" opacity=".2" d="m24 11c-0.01239 0-0.02472 0.0019-0.03711 0.002-0.0013 0.000008-0.0026-0.000008-0.0039 0-4.486 0.028-8.959 4.677-8.959 8.166v0.73828 2.7617 8.0352c0 4.741 3.375 8.297 9 8.297 5.625 0.001 9-3.5539 9-8.2949v-11.219c0-3.626-4.494-8.453-9-8.482v-0.004z"/>
 <path id="path61" fill="#ccc" d="m24 10c-0.012 0-0.025 0.002-0.037 0.002h-0.004c-4.486 0.028-8.959 4.677-8.959 8.166v0.738 2.762 8.035c0 4.741 3.375 8.297 9 8.297 5.625 0.001 9-3.554 9-8.295v-11.219c0-3.626-4.494-8.453-9-8.482v-0.004z"/>
 <path id="path69" d="m24 16c0.551 0 1 0.576 1 1.2857v3.4286c0 0.709-0.449 1.285-1 1.285s-1-0.576-1-1.286v-3.4286c0-0.709 0.449-1.285 1-1.285" fill="#5d5d5d"/>
 <path id="rect4213" opacity=".2" d="m4.0117 24.5c-0.0041 0.167-0.0117 0.332-0.0117 0.5 0 11.08 8.92 20 20 20s20-8.92 20-20c0-0.16787-0.0076-0.33314-0.01172-0.5-0.264 10.846-9.076 19.5-19.988 19.5s-19.724-8.654-19.988-19.5z"/>
</svg>
